X:1
T:Vibrate pur
T:Vibrate pur
T:Gioan Felice Sances
T:Source : Capricci poetici---Venetia---A.Gardano---1649. Editor : André Vierendeels (09/05/15).
T:Notes : Original clefs : C1, F4 Figures in BC notated in original print Dotted brackets indicate black notes Editorial accidentals above the staff From m19, notation in 3/2 in original print
C:Gioan Felice Sances
%%score 1 2
L:1/8
Q:1/4=76
M:4/4
K:F
V:1 treble nm="Soprano" snm="S"
V:2 bass nm="BC" snm="BC"
V:1
 z2 G2 BBBc | d2 d2 c2 cd | B2 B2 z2 d2 | _ee e>d d f/e/ d/c/B/A/ | G2 AB B3 A- | B8 | %6
w: Vi- bra- te pur vi-|bra- te dal- le pu-|pil- le nel|tor- men- ta- to son ful- * * * * *|* mi- ni'a mil- le|_|
w: Cer- ca- te pur cer-|ca- te piag- gia ro-|mi- ta on-|d'io per- den- do voi per- * * * * *|* da la vi- ta,|_|
w: Ar- ma- te pur ar-|ma- te la ri- tro-|si- a di|sa- ni- ma- te pur l'a- * * * * *|* ni- ma mi- a,|_|
 z F/F/ BB/c/ dd/e/ f>f | f4 z2 f>g | _e2 ed d2 d2 | z f/_e/ dc/d/ B2 BA | c3 c c2 z d | %11
w: sa- et- ta- te- mi pur, sa- et- ta te-|mi qual ber-|sa- glio'a la pro- va,|Ra- dop- pia- te- mi pur, ra- dop-|pia- te- mi di|
w: mi sgo- men- ti- no pur, mi sgo- men- ti-|no l'om- bre|di que- ste vi- e,|mi tor- men- ti- no pur, mi tor-|men- ti- no di|
w: ri- ti- ne- te- mi pur, ri- ti- ne- te-|mi de bei|vo- stri'oc- chi'al la- mo,|con- ce- de- te- mi pur, con- ce-|de- te- mi quan-|
 cc c>B B2 z _e | ddd_e ccde | c3 =B c2 z c | BBBA A2 z d | cc c>d BB_AG | G6 ^F2 | G8 :: %18
w: smi- su- ra- to'ar- dor, di|smi- su- ra- to'ar- dor mi- su- ra|no- va, _ di|smi- su- ra- to'ar- dor, di|smi- su- ra- to'ar- dor mi- su- ra|no- va.|_|
w: piu gra- ti'a- ma- tor, di|piu gra- ti'a- ma- tor le ge- lo-|si- e, _ di-|piu gra- ti'a- ma- tor, di|piu gra- ti'a- ma- tot- le ge- lo-|si- e.|_|
w: to mi ba- sti'a dir, quan-|to mi ba- sti'a dir Fil- li- de'io|v'a- mo, _ quan-|to mi ba- sti'a dir quan-|to mi ba- sti'a dir Fil- li- de'io|v'a- mo.|_|
[M:3/4] GA Bc de | f3 g _ef | d6 | B2 c2 d2 | _e2 dB cd | d2- c4 | B6 | DE FG AB | c6 | f_e dc BA | %28
w: Fa _ ro- * se _|del _ _ _|_|co- me voi|bel- la _ _ _|sie- *|te,|fa _ ro- * se _|del|co- * me _ voi _|
w: ||||||||||
w: ||||||||||
 G2 FG AB | A2- G4 | F6 | z2 c2 d2 | _e6 | z2 d2 _e2 |"^-natural" f2 e2 f2 | f2- e4 | d6 | %37
w: bel- la _ _ _|sie- *|te|fa- te|pur,|fa- te|pur che vo-|le- *|te,|
w: |||||||||
w: |||||||||
 z2 c2 d2 | _e6 | z2 d2 e2 | f6 | f2 _e2 d2 | _e2- d4 | c6 | z2 B2 c2 | d6 | z2 c2 d2 | e3 f d_e | %48
w: fa- te|pur,|fa- te|pur|_ che vo-|le- *|te,|fa- te|pur,|fa- te|pur, _ _ _|
w: |||||||||||
w: |||||||||||
 c3 d Bc | A2 B2 c2 | d6- | d2 _ed cB | A2 A2 d2- | d2 _ed cB | B2 A4 | G6 :| %56
w: _ _ _ _|* fa- te|pur|_ che _ vo- *|le- te, che|_ vo- * * *|le- *|te.|
w: ||||||||
w: ||||||||
V:2
 G,8 | ^F,8 | G,8 | G,2 A,2 B,4 | _E,4 F,4 | B,,8 | B,,8 | B,,4 B,4- | B,2 A,2 B,4 | B,,8 | %10
 F,6 D,2 | E,2 ^F,2 G,2 _E,2 | F,2 G,2 _A,2 F,2 | G,4 C,4 | D,2 E,2 F,2 D,2 | E,2 ^F,2 G,2 C,2 | %16
 D,8 | G,,8 ::[M:3/4] G,6 |"^6" A,6 | B,4 A,2 | G,4 F,2 | _E,6 | F,6 | B,,6 | B,,6 |"^6" A,,6 | %27
 B,,6 | C,2 D,4 | C,6 | F,,2 F,2 G,2 | _A,6 |"^-natural" z2 G,2 A,2 |"^-natural" B,6 | A,2 G,4 | %35
 A,6 | D,4 E,2 | F,6 | z2 _E,2 F,2 |"^-natural" G,6 | z2 F,2 G,2 | _A,4 F,2 | G,6 | C,4 D,2 | %44
 _E,6 |"^-natural" z2 D,2 E,2 | F,6 | C,4 D,2 | _E,2 C,4 |"^#" D,4 C,2 | B,,6 |"^b" C,6 | %52
"^#" D,4 B,,2- | B,,2 C,4 | D,6 | G,,6 :| %56

